X:258
T:Fisher's Wedding, The
R:Reel
B:The Athole Collection
M:C|
L:1/8
K:F
A|~F2 Ac dcAc|dFcF AGGA|~F2 Ac dcde|fgag ~f2f:|
|:e|fc ~c2 dBAB|cfba gfed|cfag ~fdcA|BgcA F/F/F ~F:|

